src/icons/0072_camera_a.svg

<svg data-name="Layer 1" xmlns="http://www.w3.org/2000/svg" viewBox="0 0 48 48"><path d="M24 16.9a9.2 9.2 0 109.2 9.2 9.18 9.18 0 00-9.2-9.2zM42 9h-6l-4.9-4H16.9L12 9H6c-2.7 0-6 3.3-6 6v22a6.45 6.45 0 006 6h36a6.37 6.37 0 006-6V15c0-2.6-3.3-6-6-6zM8 19a3 3 0 010-6 3 3 0 010 6zm16 20a13 13 0 1113-13 13 13 0 01-13 13z"/></svg>

<svg id="Layer_1" data-name="Layer 1" xmlns="http://www.w3.org/2000/svg" viewBox="0 0 48 48"><title>0072_camera_a</title><path d="M24,16.9a9.2,9.2,0,1,0,9.2,9.2A9.18,9.18,0,0,0,24,16.9ZM42,9H36L31.1,5H16.9L12,9H6c-2.7,0-6,3.3-6,6V37a6.45,6.45,0,0,0,6,6H42a6.37,6.37,0,0,0,6-6V15C48,12.4,44.7,9,42,9ZM8,19a3,3,0,0,1,0-6,3,3,0,0,1,0,6ZM24,39A13,13,0,1,1,37,26,13,13,0,0,1,24,39Z"/></svg>
